svg/emoji_u2b06.svg

<?xml version="1.0" encoding="UTF-8"?>
<svg width="128" height="128" enable-background="new 0 0 128 128" xmlns="http://www.w3.org/2000/svg"><linearGradient id="a" x1="64" x2="64" y1="4.25" y2="124.41" gradientUnits="userSpaceOnUse"><stop stop-color="#40C4FF" offset="0"/><stop stop-color="#2DB5F9" offset=".3517"/><stop stop-color="#0091EA" offset="1"/></linearGradient><path d="m116 124h-104c-4.42 0-8-3.58-8-8v-104c0-4.42 3.58-8 8-8h104c4.42 0 8 3.58 8 8v104c0 4.42-3.58 8-8 8z" fill="url(#a)"/><g opacity=".2"><path d="m116 7c2.76 0 5 2.24 5 5v104c0 2.76-2.24 5-5 5h-104c-2.76 0-5-2.24-5-5v-104c0-2.76 2.24-5 5-5h104m0-3h-104c-4.42 0-8 3.58-8 8v104c0 4.42 3.58 8 8 8h104c4.42 0 8-3.58 8-8v-104c0-4.42-3.58-8-8-8z" fill="#424242"/></g><g opacity=".2"><path d="m64 22c1.11 0 2.21 0.46 3.01 1.37l23.99 24c2.26 2.59 0.43 6.63-3.01 6.63h-13.99c-1.1 0-2 0.9-2 2v46c0 2.21-1.79 4-4 4h-8c-2.21 0-4-1.79-4-4v-46c0-1.1-0.9-2-2-2h-13.99c-3.44 0-5.27-4.05-3.01-6.63l23.99-24c0.8-0.91 1.9-1.37 3.01-1.37m0-3c-1.98 0-3.87 0.84-5.19 2.31l-24.07 24.07c-1.83 2.09-2.26 4.97-1.11 7.5s3.59 4.11 6.37 4.11h13v45c0 3.86 3.14 7 7 7h8c3.86 0 7-3.14 7-7v-44.99h12.99c2.78 0 5.22-1.57 6.37-4.11 1.15-2.53 0.73-5.41-1.11-7.5l-0.14-0.14-23.92-23.94c-1.32-1.47-3.21-2.31-5.19-2.31z" fill="#424242"/></g><path d="M37,47.37l23.99-24c1.59-1.82,4.43-1.82,6.02,0l23.99,24c2.26,2.59,0.43,6.63-3.01,6.63H74 c-1.1,0-2,0.9-2,2v46c0,2.21-1.79,4-4,4h-8c-2.21,0-4-1.79-4-4V56c0-1.1-0.9-2-2-2H40.01C36.57,54,34.73,49.95,37,47.37z" fill="#FAFAFA"/></svg>

<svg width="128" height="128" style="enable-background:new 0 0 128 128;" xmlns="http://www.w3.org/2000/svg" xmlns:xlink="http://www.w3.org/1999/xlink">
  <g>
    <linearGradient id="SVGID_1_" gradientUnits="userSpaceOnUse" x1="64" x2="64" y1="4.25" y2="124.4088">
      <stop offset="0" style="stop-color:#40C4FF"/>
      <stop offset="0.3517" style="stop-color:#2DB5F9"/>
      <stop offset="1" style="stop-color:#0091EA"/>
    </linearGradient>
    <path d="M116,124H12c-4.42,0-8-3.58-8-8V12c0-4.42,3.58-8,8-8h104c4.42,0,8,3.58,8,8v104 C124,120.42,120.42,124,116,124z" style="fill:url(#SVGID_1_);"/>
    <g style="opacity:0.2;">
      <path d="M116,7c2.76,0,5,2.24,5,5v104c0,2.76-2.24,5-5,5H12c-2.76,0-5-2.24-5-5V12c0-2.76,2.24-5,5-5H116 M116,4H12c-4.42,0-8,3.58-8,8v104c0,4.42,3.58,8,8,8h104c4.42,0,8-3.58,8-8V12C124,7.58,120.42,4,116,4L116,4z" style="fill:#424242;"/>
    </g>
    <g style="opacity:0.2;">
      <path d="M64,22c1.11,0,2.21,0.46,3.01,1.37l23.99,24c2.26,2.59,0.43,6.63-3.01,6.63H74c-1.1,0-2,0.9-2,2v46 c0,2.21-1.79,4-4,4h-8c-2.21,0-4-1.79-4-4V56c0-1.1-0.9-2-2-2H40.01c-3.44,0-5.27-4.05-3.01-6.63l23.99-24 C61.79,22.46,62.89,22,64,22 M64,19c-1.98,0-3.87,0.84-5.19,2.31L34.88,45.24l-0.07,0.07l-0.07,0.07 c-1.83,2.09-2.26,4.97-1.11,7.5c1.15,2.53,3.59,4.11,6.37,4.11H53v45c0,3.86,3.14,7,7,7h8c3.86,0,7-3.14,7-7V57h12.99 c2.78,0,5.22-1.57,6.37-4.11c1.15-2.53,0.73-5.41-1.11-7.5l-0.07-0.07l-0.07-0.07L69.19,21.31C67.87,19.84,65.98,19,64,19L64,19z" style="fill:#424242;"/>
    </g>
    <path d="M37,47.37l23.99-24c1.59-1.82,4.43-1.82,6.02,0l23.99,24c2.26,2.59,0.43,6.63-3.01,6.63H74 c-1.1,0-2,0.9-2,2v46c0,2.21-1.79,4-4,4h-8c-2.21,0-4-1.79-4-4V56c0-1.1-0.9-2-2-2H40.01C36.57,54,34.73,49.95,37,47.37z" style="fill:#FAFAFA;"/>
  </g>
</svg>
